svg/u1f417.svg

<svg viewBox="0 0 128 128" xmlns="http://www.w3.org/2000/svg">
  <path d="M16.08,63.57l8.45-3.94c0,0-2.06-3.38-2.82-5.26c-0.75-1.88-2.06-6.19-4.32-6.19 s-3.38,5.26-3.19,8.45C14.39,59.82,16.08,63.57,16.08,63.57z" fill="#FFEAC9"/>
  <path d="M108.13,56.67c0,0,2.82-0.77,5.7-0.28s7.18,2.25,8.09,1.9c0.92-0.35,1.27-1.9,0.35-2.82 s-14.5-1.9-14.5-1.9L108.13,56.67z" fill="#543731"/>
  <path d="M108.62,71.41l1.81,3.64c0,0,4.08,26.4,4.79,26.4c0.7,0,2.43,0.03,2.79-1.64 c0.75-3.47,0.66-9.39-0.66-15.39c-1-4.59-3.1-8.45-3.1-8.45s2.13,0.54,3.75,1.31c1.97,0.94,4.83,2.67,5.54,2.53 c0.7-0.14-0.19-3.38-0.61-4.08C122.51,75.02,108.62,71.41,108.62,71.41z" fill="#543731"/>
  <path d="M94.45,89.05l0.68,7.98l5,14.36c0,0,0.58-0.07,1.6,0c1.92,0.14,1.17-5.02,0.33-9.53 c-0.84-4.5-4.11-11.94-4.11-11.94L94.45,89.05z" fill="#543731"/>
  <path d="M79.9,101.53l-4.13,0.66l-2.63,17.69c0,0,1.5,0.82,2.49,0.19c0.99-0.63,2.39-3.66,3.05-8.63 C79.43,105.81,79.9,101.53,79.9,101.53z" fill="#543731"/>
  <path d="M69.77,26.59c0,0-10.92-1.8-18.21,1.69c-7.84,3.75-13.26,12.2-19.1,19.45 c-5.3,6.58-10.18,10.96-13,11.71c-2.82,0.75-8.63,1.69-8.63,1.69l-1.5,19.9c0,0-0.19,4.5,1.69,5.63c1.88,1.13,5.82,3.19,7.13,3.19 c1.31,0,5.63,0.56,5.63,0.56s0.19,2.44,3.94,3.94c3.75,1.5,12.01,3.19,15.96,5.44s14.64,9.2,17.64,11.83 c3,2.63,10.75,9.18,12.95,8.45c1.13-0.38,2.21-16.66,3-17.08s8.56,4.32,13.51,6.01c5.09,1.74,9.39,2.93,9.95,2.44 c0.82-0.72-0.19-6.57-1.5-10.32c-1.31-3.75-3.8-8.89-2.86-10.02s17.67,11.54,19.22,10.28c0.77-0.63,0.54-10.41-0.73-16.82 c-1.41-7.11-3.99-10-3.5-10.84c0.43-0.73,4.86,0.38,7.3,1.6c1.94,0.97,4.39,2.7,4.79,2.16c0.56-0.75-3.4-8.59-6.03-12.34 c-3.94-5.63-8.99-9.43-8.99-10c0-0.56,3.34-0.59,6.59-0.21c3.4,0.4,7.39,2.06,7.67,1.53c0.28-0.54-1.5-4.32-5.63-8.45 c-4.13-4.13-13.33-7.7-13.33-7.7l-5.26-16.52c0,0,1.07-2.44,0.38-4.5c-0.73-2.16-2.48-2.67-2.63-3.19 c-0.14-0.52,4.13-4.32,0.38-7.51s-14.83,4.32-18.96,8.26C73.52,20.77,69.77,26.59,69.77,26.59z" fill="#865B52"/>
  <path d="M90.46,27.11c0,0,6.18-4.13,14.5-5.77c9.29-1.83,14.34-1.27,16.4-1.27c2.32,0,2.82,1.13,1.69,4.29 s-3.33,9.75-6.76,14.92c-3.73,5.63-6.97,9.22-12.11,11.61c-5.14,2.39-16.15,5.15-16.82,1.9c-0.42-2.04,1.64-2.35,5.42-5.07 c4.01-2.89,7.53-6.48,6.12-9.08s-6.97-0.92-12.11,2.53c-5,3.35-8.59,8.73-11.61,5.77c-3.03-2.96,1.9-8.73,3.66-10.77 c1.76-2.04,6.34-5.7,6.34-5.7s-2.82-0.84-4.79-1.2c-1.97-0.35-6.76-1.69-6.76-1.69s5.98-1.2,10.07-1.06 C87.79,26.69,90.46,27.11,90.46,27.11z" fill="#543731"/>
  <path d="M38.44,89.4c0,0-2.25-6.41-1.76-12.32c0.49-5.91,2.11-10.14,4.79-9.85c2.67,0.28,4.01,5.98,4.72,8.52 c0.7,2.53,1.41,4.15,1.83,4.65s2.89,3.03,2.89,3.03l-6.05,5L38.44,89.4z" fill="#FFEACA"/>
  <path d="M51.75,83.21c0.96,1.23,0.34,3.18-2.04,5c-2.39,1.83-6.72,3.54-13.63,4.5 c-5.37,0.75-9.17,0.33-11.03-0.05c-2.18-0.44-3.07-1.15-3.07-1.15s-3.68-0.54-6.87-1.95c-2.91-1.28-5.96-3.61-5.73-4.36 c0.42-1.35,5.63,2.37,9.01,3.14s8.02,0.84,12.74,0.63c4.72-0.21,9.6-1.38,12.67-2.82C48.16,84.13,50.27,81.31,51.75,83.21z" fill="#503430"/>
  <path d="M10.43,60.26c-2.93-0.51-5.92,5.08-5.98,10.44c-0.07,5.58,1.27,8.42,1.97,10.32s2.21,5.02,4.88,5.02 c2.52,0,10.36-5.02,10.61-11.22C22.18,67.72,16.48,61.32,10.43,60.26z" fill="#FFD3B0"/>
  <ellipse cx="13.52" cy="72.09" fill="#47302D" rx="2.18" ry="4.15"/>
  <path d="M7.96,70.44c-0.11,2.29-1.07,4.35-2.11,4.3s-1.43-2.4-1.31-4.69c0.11-2.29,0.7-3.9,1.74-3.85 S8.07,68.15,7.96,70.44z" fill="#47302D"/>
  <ellipse cx="61.8" cy="56.81" fill="#090A0B" rx="6.31" ry="4.3" transform="matrix(0.1501 -0.9887 0.9887 0.1501 -3.6453 109.3784)"/>
  <ellipse cx="59.98" cy="54.17" fill="#FFFCFF" rx="2.92" ry="1.69" transform="matrix(0.3961 -0.9182 0.9182 0.3961 -13.5193 87.7933)"/>
  <path d="M71.88,97.82c0.92,0.07,2.01-14.33-3.87-11.76C61.25,89.02,70.96,97.75,71.88,97.82z" fill="#B79277"/>
  <path d="M85.56,84.39c0.49-0.77-5.19-11.53-8.31-7.18C73.33,82.69,84.97,85.32,85.56,84.39z" fill="#B79277"/>
  <path d="M93.4,68.8c0.19-0.46-7.75-10.35-10.03-4.16C81.69,69.16,93.05,69.63,93.4,68.8z" fill="#B79277"/>
  <path d="M102.29,84.23c0.28-0.49-5.36-11.22-8.59-6.41C90.67,82.33,102,84.72,102.29,84.23z" fill="#B79277"/>
  <path d="M87.01,99.97c0.69-0.44-2.75-10.98-6.55-7.74C76.69,95.45,86.24,100.47,87.01,99.97z" fill="#B79277"/>
</svg>

<svg viewBox="0 0 128 128" xmlns="http://www.w3.org/2000/svg">
  <defs/>
  <path d="M16.08,63.57 L24.53,59.63 C24.53,59.63 22.47,56.25 21.71,54.37 C20.96,52.49 19.65,48.18 17.39,48.18 C15.13,48.18 14.01,53.44 14.2,56.63 C14.39,59.82 16.08,63.57 16.08,63.57 Z" fill="#FFEAC9"/>
  <path d="M108.13,56.67 C108.13,56.67 110.95,55.9 113.83,56.39 C116.71,56.88 121.01,58.64 121.92,58.29 C122.84,57.94 123.19,56.39 122.27,55.47 C121.35,54.55 107.77,53.57 107.77,53.57 L108.13,56.67 Z" fill="#543731"/>
  <path d="M108.62,71.41 L110.43,75.05 C110.43,75.05 114.51,101.45 115.22,101.45 C115.92,101.45 117.65,101.48 118.01,99.81 C118.76,96.34 118.67,90.42 117.35,84.42 C116.35,79.83 114.25,75.97 114.25,75.97 C114.25,75.97 116.38,76.51 118,77.28 C119.97,78.22 122.83,79.95 123.54,79.81 C124.24,79.67 123.35,76.43 122.93,75.73 C122.51,75.02 108.62,71.41 108.62,71.41 Z" fill="#543731"/>
  <path d="M94.45,89.05 L95.13,97.03 L100.13,111.39 C100.13,111.39 100.71,111.32 101.73,111.39 C103.65,111.53 102.9,106.37 102.06,101.86 C101.22,97.36 97.95,89.92 97.95,89.92 L94.45,89.05 Z" fill="#543731"/>
  <path d="M79.9,101.53 L75.77,102.19 L73.14,119.88 C73.14,119.88 74.64,120.7 75.63,120.07 C76.62,119.44 78.02,116.41 78.68,111.44 C79.43,105.81 79.9,101.53 79.9,101.53 Z" fill="#543731"/>
  <path d="M69.77,26.59 C69.77,26.59 58.85,24.79 51.56,28.28 C43.72,32.03 38.3,40.48 32.46,47.73 C27.16,54.31 22.28,58.69 19.46,59.44 C16.64,60.19 10.83,61.13 10.83,61.13 L9.33,81.03 C9.33,81.03 9.14,85.53 11.02,86.66 C12.9,87.79 16.84,89.85 18.15,89.85 C19.46,89.85 23.78,90.41 23.78,90.41 C23.78,90.41 23.97,92.85 27.72,94.35 C31.47,95.85 39.73,97.54 43.68,99.79 C47.63,102.04 58.32,108.99 61.32,111.62 C64.32,114.25 72.07,120.8 74.27,120.07 C75.4,119.69 76.48,103.41 77.27,102.99 C78.06,102.57 85.83,107.31 90.78,109 C95.87,110.74 100.17,111.93 100.73,111.44 C101.55,110.72 100.54,104.87 99.23,101.12 C97.92,97.37 95.43,92.23 96.37,91.1 C97.31,89.97 114.04,102.64 115.59,101.38 C116.36,100.75 116.13,90.97 114.86,84.56 C113.45,77.45 110.87,74.56 111.36,73.72 C111.79,72.99 116.22,74.1 118.66,75.32 C120.6,76.29 123.05,78.02 123.45,77.48 C124.01,76.73 120.05,68.89 117.42,65.14 C113.48,59.51 108.43,55.71 108.43,55.14 C108.43,54.58 111.77,54.55 115.02,54.93 C118.42,55.33 122.41,56.99 122.69,56.46 C122.97,55.92 121.19,52.14 117.06,48.01 C112.93,43.88 103.73,40.31 103.73,40.31 L98.47,23.79 C98.47,23.79 99.54,21.35 98.85,19.29 C98.12,17.13 96.37,16.62 96.22,16.1 C96.08,15.58 100.35,11.78 96.6,8.59 C92.85,5.4 81.77,12.91 77.64,16.85 C73.52,20.77 69.77,26.59 69.77,26.59 Z" fill="#865B52"/>
  <path d="M90.46,27.11 C90.46,27.11 96.64,22.98 104.96,21.34 C114.25,19.51 119.3,20.07 121.36,20.07 C123.68,20.07 124.18,21.2 123.05,24.36 C121.92,27.52 119.72,34.11 116.29,39.28 C112.56,44.91 109.32,48.5 104.18,50.89 C99.04,53.28 88.03,56.04 87.36,52.79 C86.94,50.75 89,50.44 92.78,47.72 C96.79,44.83 100.31,41.24 98.9,38.64 C97.49,36.04 91.93,37.72 86.79,41.17 C81.79,44.52 78.2,49.9 75.18,46.94 C72.15,43.98 77.08,38.21 78.84,36.17 C80.6,34.13 85.18,30.47 85.18,30.47 C85.18,30.47 82.36,29.63 80.39,29.27 C78.42,28.92 73.63,27.58 73.63,27.58 C73.63,27.58 79.61,26.38 83.7,26.52 C87.79,26.69 90.46,27.11 90.46,27.11 Z" fill="#543731"/>
  <path d="M38.44,89.4 C38.44,89.4 36.19,82.99 36.68,77.08 C37.17,71.17 38.79,66.94 41.47,67.23 C44.14,67.51 45.48,73.21 46.19,75.75 C46.89,78.28 47.6,79.9 48.02,80.4 C48.44,80.9 50.91,83.43 50.91,83.43 L44.86,88.43 L38.44,89.4 Z" fill="#FFEACA"/>
  <path d="M51.75,83.21 C52.71,84.44 52.09,86.39 49.71,88.21 C47.32,90.04 42.99,91.75 36.08,92.71 C30.71,93.46 26.91,93.04 25.05,92.66 C22.87,92.22 21.98,91.51 21.98,91.51 C21.98,91.51 18.3,90.97 15.11,89.56 C12.2,88.28 9.15,85.95 9.38,85.2 C9.8,83.85 15.01,87.57 18.39,88.34 C21.77,89.11 26.41,89.18 31.13,88.97 C35.85,88.76 40.73,87.59 43.8,86.15 C48.16,84.13 50.27,81.31 51.75,83.21 Z" fill="#503430"/>
  <path d="M10.43,60.26 C7.5,59.75 4.51,65.34 4.45,70.7 C4.38,76.28 5.72,79.12 6.42,81.02 C7.12,82.92 8.63,86.04 11.3,86.04 C13.82,86.04 21.66,81.02 21.91,74.82 C22.18,67.72 16.48,61.32 10.43,60.26 Z" fill="#FFD3B0"/>
  <path d="M15.7,72.09 A2.18 4.15 0 1 1 11.34,72.09 A2.18 4.15 0 1 1 15.7,72.09 Z" fill="#47302D"/>
  <path d="M7.96,70.44 C7.85,72.73 6.89,74.79 5.85,74.74 C4.81,74.69 4.42,72.34 4.54,70.05 C4.65,67.76 5.24,66.15 6.28,66.2 C7.32,66.25 8.07,68.15 7.96,70.44 Z" fill="#47302D"/>
  <path d="M62.746,50.565 C65.094,50.922 66.573,54.004 66.05,57.449 C65.527,60.895 63.2,63.399 60.852,63.043 C58.504,62.686 57.024,59.604 57.548,56.158 C58.071,52.713 60.398,50.209 62.746,50.565 Z" fill="#090A0B"/>
  <path d="M61.134,51.495 C61.991,51.865 62.168,53.365 61.529,54.846 C60.891,56.327 59.678,57.227 58.821,56.858 C57.964,56.488 57.787,54.988 58.426,53.507 C59.065,52.026 60.277,51.126 61.134,51.495 Z" fill="#FFFCFF"/>
  <path d="M71.88,97.82 C72.8,97.89 73.89,83.49 68.01,86.06 C61.25,89.02 70.96,97.75 71.88,97.82 Z" fill="#B79277"/>
  <path d="M85.56,84.39 C86.05,83.62 80.37,72.86 77.25,77.21 C73.33,82.69 84.97,85.32 85.56,84.39 Z" fill="#B79277"/>
  <path d="M93.4,68.8 C93.59,68.34 85.65,58.45 83.37,64.64 C81.69,69.16 93.05,69.63 93.4,68.8 Z" fill="#B79277"/>
  <path d="M102.29,84.23 C102.57,83.74 96.93,73.01 93.7,77.82 C90.67,82.33 102,84.72 102.29,84.23 Z" fill="#B79277"/>
  <path d="M87.01,99.97 C87.7,99.53 84.26,88.99 80.46,92.23 C76.69,95.45 86.24,100.47 87.01,99.97 Z" fill="#B79277"/>
</svg>
